local/share/icons/dracula-icons-main/scalable/apps/obs.svg

<?xml version="1.0" encoding="UTF-8"?>
<svg xmlns="http://www.w3.org/2000/svg" xmlns:xlink="http://www.w3.org/1999/xlink" width="64" height="64" viewBox="0 0 64 64">
<path fill-rule="nonzero" fill="rgb(20%, 20%, 20%)" fill-opacity="1" d="M 15.609375 8.46875 C 15.609375 12.414062 12.414062 15.609375 8.46875 15.609375 C 4.519531 15.609375 1.324219 12.414062 1.324219 8.46875 C 1.324219 4.519531 4.519531 1.324219 8.46875 1.324219 C 12.414062 1.324219 15.609375 4.519531 15.609375 8.46875 Z M 15.609375 8.46875 "/>
<path fill-rule="evenodd" fill="rgb(97.647059%, 97.647059%, 97.647059%)" fill-opacity="1" d="M 7.242188 3.492188 C 6.367188 3.957031 5.632812 4.820312 5.609375 5.851562 C 5.59375 6.382812 5.707031 6.949219 5.964844 7.410156 C 6.882812 7.425781 7.828125 7.949219 8.148438 8.839844 C 8.621094 10.019531 8.066406 11.582031 6.828125 12.015625 C 6.191406 12.246094 5.484375 12.144531 4.871094 11.898438 C 5.710938 12.425781 6.828125 12.628906 7.730469 12.128906 C 8.203125 11.878906 8.617188 11.5 8.902344 11.050781 C 8.457031 10.25 8.4375 9.171875 9.046875 8.445312 C 9.832031 7.445312 11.460938 7.140625 12.460938 7.992188 C 12.976562 8.429688 13.242188 9.09375 13.335938 9.746094 C 13.371094 8.757812 12.988281 7.6875 12.109375 7.15625 C 11.65625 6.867188 11.121094 6.707031 10.589844 6.671875 C 10.117188 7.460938 9.191406 8.015625 8.257812 7.851562 C 7.003906 7.671875 5.917969 6.414062 6.160156 5.125 C 6.28125 4.460938 6.722656 3.898438 7.242188 3.492188 Z M 7.242188 3.492188 "/>
</svg>

<svg width="64" height="64" version="1.1" viewBox="0 0 16.934 16.934" xmlns="http://www.w3.org/2000/svg">
 <circle cx="8.467" cy="8.467" r="7.144" fill="#333" stroke-width=".26459" style="paint-order:markers stroke fill"/>
 <path d="m7.2421 3.4925c-0.87673 0.46266-1.6104 1.3278-1.6315 2.3576-0.016807 0.53447 0.094732 1.098 0.35601 1.5585 0.91676 0.015585 1.8607 0.53906 2.1822 1.4308 0.47091 1.1787-0.083426 2.7433-1.3226 3.1775-0.63562 0.22889-1.3424 0.12682-1.9567-0.11979 0.83976 0.52867 1.9579 0.73097 2.8603 0.23225 0.47244-0.25028 0.88834-0.6289 1.1716-1.0775-0.44585-0.8037-0.46358-1.8818 0.14729-2.6076 0.78292-0.99805 2.4141-1.3055 3.411-0.45013 0.51614 0.43546 0.78078 1.0986 0.87429 1.7535 0.037588-0.99072-0.3447-2.0591-1.2254-2.5917-0.45288-0.28878-0.98766-0.44708-1.5185-0.48375-0.47336 0.78811-1.3981 1.3431-2.3322 1.1777-1.2551-0.17724-2.3384-1.4341-2.096-2.7246 0.11857-0.66496 0.56137-1.2254 1.0812-1.6331z" fill="#f9f9f9" fill-rule="evenodd"/>
</svg>
